X: 19312
T: Jack Coughlan's
R: reel
M: 4/4
K: Gmajor
cABA G3 B|AE~ E2 GEDG|cABA G2 ge|1 dBAc BGGB:|2 dBAc BGGE||
|:DB,DE G3A|BABd edBe|1 dBde gage|dBAc BGGE:|2 dBde gage|dBAc BGGB||

